third_party/noto/noto_2/emoji_u1f39a.svg

<svg enable-background="new 0 0 128 128" version="1.1" viewBox="0 0 128 128" xmlns="http://www.w3.org/2000/svg"><linearGradient id="a" x1="22.748" x2="105.25" y1="64" y2="64" gradientUnits="userSpaceOnUse"><stop stop-color="#eee" offset="0"/><stop stop-color="#757575" offset="1"/></linearGradient><path d="m92.53 124h-57.06c-7 0-12.72-5.72-12.72-12.72v-94.56c0-7 5.72-12.72 12.72-12.72h57.06c7 0 12.72 5.72 12.72 12.72v94.56c0 7-5.72 12.72-12.72 12.72z" fill="url(#a)"/><path d="m87.84 124h-47.68c-7.41 0-13.47-6.06-13.47-13.47v-93.06c-0.01-7.41 6.06-13.47 13.47-13.47h47.69c7.41 0 13.47 6.06 13.47 13.47v93.05c0 7.42-6.07 13.48-13.48 13.48z" fill="#BDBDBD"/><path d="m64.07 115.19h-0.14c-2.2 0-4-1.8-4-4v-94.38c0-2.2 1.8-4 4-4h0.14c2.2 0 4 1.8 4 4v94.37c0 2.21-1.8 4.01-4 4.01z" fill="#212121"/><path d="m64 12.81c-0.42 0-0.82 0.08-1.21 0.2 1.65 0.5 2.86 1.98 2.86 3.74v94.5c0 1.76-1.21 3.24-2.86 3.74 0.38 0.12 0.78 0.2 1.21 0.2 2.24 0 4.07-1.77 4.07-3.94v-94.5c0-2.16-1.83-3.94-4.07-3.94z" fill="#E0E0E0"/><g fill="none" stroke="#424242" stroke-linecap="round" stroke-linejoin="round" stroke-miterlimit="10" stroke-width="2"><line x1="73.54" x2="91.4" y1="16.29" y2="16.29"/><line x1="73.54" x2="91.4" y1="25.83" y2="25.83"/><line x1="73.54" x2="91.4" y1="35.37" y2="35.37"/><line x1="73.54" x2="91.4" y1="44.92" y2="44.92"/><line x1="73.54" x2="91.4" y1="54.46" y2="54.46"/><line x1="73.54" x2="91.4" y1="64" y2="64"/><line x1="73.54" x2="91.4" y1="73.54" y2="73.54"/><line x1="73.54" x2="91.4" y1="83.08" y2="83.08"/><line x1="73.54" x2="91.4" y1="92.63" y2="92.63"/><line x1="73.54" x2="91.4" y1="102.17" y2="102.17"/><line x1="73.54" x2="91.4" y1="111.71" y2="111.71"/><line x1="36.6" x2="54.46" y1="16.29" y2="16.29"/><line x1="36.6" x2="54.46" y1="25.83" y2="25.83"/><line x1="36.6" x2="54.46" y1="35.37" y2="35.37"/><line x1="36.6" x2="54.46" y1="44.92" y2="44.92"/><line x1="36.6" x2="54.46" y1="54.46" y2="54.46"/><line x1="36.6" x2="54.46" y1="64" y2="64"/><line x1="36.6" x2="54.46" y1="73.54" y2="73.54"/><line x1="36.6" x2="54.46" y1="83.08" y2="83.08"/><line x1="36.6" x2="54.46" y1="92.63" y2="92.63"/><line x1="36.6" x2="54.46" y1="102.17" y2="102.17"/><line x1="36.6" x2="54.46" y1="111.71" y2="111.71"/></g><path d="m76.33 53.49h-18.86c-2.72 0-4.92-2.2-4.92-4.92v-2.12c0-2.72 2.2-4.92 4.92-4.92h18.86c2.72 0 4.92 2.2 4.92 4.92v2.12c0 2.71-2.2 4.92-4.92 4.92z" opacity=".26"/><path d="m73.33 50.41h-18.86c-2.72 0-4.92-2.2-4.92-4.92v-2.12c0-2.72 2.2-4.92 4.92-4.92h18.86c2.72 0 4.92 2.2 4.92 4.92v2.12c0 2.72-2.2 4.92-4.92 4.92z"/><path d="m59.4 43.63h-5.69c-1.85 0-2.57-2.39-1.03-3.42 0.7-0.47 1.67-0.79 3-0.79h9.41c0.38 0 0.53 0.49 0.21 0.7-2.32 1.6-2.42 3.51-5.9 3.51z" fill="#455A64"/></svg>

<?xml version="1.0" encoding="utf-8"?>
<!-- Generator: Adobe Illustrator 25.2.3, SVG Export Plug-In . SVG Version: 6.00 Build 0)  -->
<svg version="1.1" id="Layer_2" xmlns="http://www.w3.org/2000/svg" xmlns:xlink="http://www.w3.org/1999/xlink" x="0px" y="0px"
	 viewBox="0 0 128 128" style="enable-background:new 0 0 128 128;" xml:space="preserve">
<g>
	<g>
		<linearGradient id="SVGID_1_" gradientUnits="userSpaceOnUse" x1="22.7476" y1="64" x2="105.2524" y2="64">
			<stop  offset="0" style="stop-color:#EEEEEE"/>
			<stop  offset="1" style="stop-color:#757575"/>
		</linearGradient>
		<path style="fill:url(#SVGID_1_);" d="M92.53,124H35.47c-7,0-12.72-5.72-12.72-12.72V16.72c0-7,5.72-12.72,12.72-12.72h57.06
			c7,0,12.72,5.72,12.72,12.72v94.56C105.25,118.28,99.53,124,92.53,124z"/>
	</g>
	<g>
		<path style="fill:#BDBDBD;" d="M87.84,124H40.16c-7.41,0-13.47-6.06-13.47-13.47V17.47C26.68,10.06,32.75,4,40.16,4h47.69
			c7.41,0,13.47,6.06,13.47,13.47v93.05C101.32,117.94,95.25,124,87.84,124z"/>
	</g>
	<g>
		<g>
			<path style="fill:#212121;" d="M64.07,115.19h-0.14c-2.2,0-4-1.8-4-4V16.81c0-2.2,1.8-4,4-4h0.14c2.2,0,4,1.8,4,4v94.37
				C68.07,113.39,66.27,115.19,64.07,115.19z"/>
		</g>
		<path style="fill:#E0E0E0;" d="M64,12.81c-0.42,0-0.82,0.08-1.21,0.2c1.65,0.5,2.86,1.98,2.86,3.74v94.5
			c0,1.76-1.21,3.24-2.86,3.74c0.38,0.12,0.78,0.2,1.21,0.2c2.24,0,4.07-1.77,4.07-3.94v-94.5C68.07,14.59,66.24,12.81,64,12.81z"/>
	</g>
	<g>
		<g>
			
				<line style="fill:none;stroke:#424242;stroke-width:2;stroke-linecap:round;stroke-linejoin:round;stroke-miterlimit:10;" x1="73.54" y1="16.29" x2="91.4" y2="16.29"/>
			
				<line style="fill:none;stroke:#424242;stroke-width:2;stroke-linecap:round;stroke-linejoin:round;stroke-miterlimit:10;" x1="73.54" y1="25.83" x2="91.4" y2="25.83"/>
			
				<line style="fill:none;stroke:#424242;stroke-width:2;stroke-linecap:round;stroke-linejoin:round;stroke-miterlimit:10;" x1="73.54" y1="35.37" x2="91.4" y2="35.37"/>
			
				<line style="fill:none;stroke:#424242;stroke-width:2;stroke-linecap:round;stroke-linejoin:round;stroke-miterlimit:10;" x1="73.54" y1="44.92" x2="91.4" y2="44.92"/>
			
				<line style="fill:none;stroke:#424242;stroke-width:2;stroke-linecap:round;stroke-linejoin:round;stroke-miterlimit:10;" x1="73.54" y1="54.46" x2="91.4" y2="54.46"/>
			
				<line style="fill:none;stroke:#424242;stroke-width:2;stroke-linecap:round;stroke-linejoin:round;stroke-miterlimit:10;" x1="73.54" y1="64" x2="91.4" y2="64"/>
			
				<line style="fill:none;stroke:#424242;stroke-width:2;stroke-linecap:round;stroke-linejoin:round;stroke-miterlimit:10;" x1="73.54" y1="73.54" x2="91.4" y2="73.54"/>
			
				<line style="fill:none;stroke:#424242;stroke-width:2;stroke-linecap:round;stroke-linejoin:round;stroke-miterlimit:10;" x1="73.54" y1="83.08" x2="91.4" y2="83.08"/>
			
				<line style="fill:none;stroke:#424242;stroke-width:2;stroke-linecap:round;stroke-linejoin:round;stroke-miterlimit:10;" x1="73.54" y1="92.63" x2="91.4" y2="92.63"/>
			
				<line style="fill:none;stroke:#424242;stroke-width:2;stroke-linecap:round;stroke-linejoin:round;stroke-miterlimit:10;" x1="73.54" y1="102.17" x2="91.4" y2="102.17"/>
			
				<line style="fill:none;stroke:#424242;stroke-width:2;stroke-linecap:round;stroke-linejoin:round;stroke-miterlimit:10;" x1="73.54" y1="111.71" x2="91.4" y2="111.71"/>
		</g>
		<g>
			
				<line style="fill:none;stroke:#424242;stroke-width:2;stroke-linecap:round;stroke-linejoin:round;stroke-miterlimit:10;" x1="36.6" y1="16.29" x2="54.46" y2="16.29"/>
			
				<line style="fill:none;stroke:#424242;stroke-width:2;stroke-linecap:round;stroke-linejoin:round;stroke-miterlimit:10;" x1="36.6" y1="25.83" x2="54.46" y2="25.83"/>
			
				<line style="fill:none;stroke:#424242;stroke-width:2;stroke-linecap:round;stroke-linejoin:round;stroke-miterlimit:10;" x1="36.6" y1="35.37" x2="54.46" y2="35.37"/>
			
				<line style="fill:none;stroke:#424242;stroke-width:2;stroke-linecap:round;stroke-linejoin:round;stroke-miterlimit:10;" x1="36.6" y1="44.92" x2="54.46" y2="44.92"/>
			
				<line style="fill:none;stroke:#424242;stroke-width:2;stroke-linecap:round;stroke-linejoin:round;stroke-miterlimit:10;" x1="36.6" y1="54.46" x2="54.46" y2="54.46"/>
			
				<line style="fill:none;stroke:#424242;stroke-width:2;stroke-linecap:round;stroke-linejoin:round;stroke-miterlimit:10;" x1="36.6" y1="64" x2="54.46" y2="64"/>
			
				<line style="fill:none;stroke:#424242;stroke-width:2;stroke-linecap:round;stroke-linejoin:round;stroke-miterlimit:10;" x1="36.6" y1="73.54" x2="54.46" y2="73.54"/>
			
				<line style="fill:none;stroke:#424242;stroke-width:2;stroke-linecap:round;stroke-linejoin:round;stroke-miterlimit:10;" x1="36.6" y1="83.08" x2="54.46" y2="83.08"/>
			
				<line style="fill:none;stroke:#424242;stroke-width:2;stroke-linecap:round;stroke-linejoin:round;stroke-miterlimit:10;" x1="36.6" y1="92.63" x2="54.46" y2="92.63"/>
			
				<line style="fill:none;stroke:#424242;stroke-width:2;stroke-linecap:round;stroke-linejoin:round;stroke-miterlimit:10;" x1="36.6" y1="102.17" x2="54.46" y2="102.17"/>
			
				<line style="fill:none;stroke:#424242;stroke-width:2;stroke-linecap:round;stroke-linejoin:round;stroke-miterlimit:10;" x1="36.6" y1="111.71" x2="54.46" y2="111.71"/>
		</g>
	</g>
	<path style="opacity:0.26;" d="M76.33,53.49H57.47c-2.72,0-4.92-2.2-4.92-4.92v-2.12c0-2.72,2.2-4.92,4.92-4.92h18.86
		c2.72,0,4.92,2.2,4.92,4.92v2.12C81.25,51.28,79.05,53.49,76.33,53.49z"/>
	<path d="M73.33,50.41H54.47c-2.72,0-4.92-2.2-4.92-4.92v-2.12c0-2.72,2.2-4.92,4.92-4.92h18.86c2.72,0,4.92,2.2,4.92,4.92v2.12
		C78.25,48.21,76.05,50.41,73.33,50.41z"/>
	<g>
		<path style="fill:#455A64;" d="M59.4,43.63h-5.69c-1.85,0-2.57-2.39-1.03-3.42c0.7-0.47,1.67-0.79,3-0.79h9.41
			c0.38,0,0.53,0.49,0.21,0.7C62.98,41.72,62.88,43.63,59.4,43.63z"/>
	</g>
</g>
</svg>
